icons/1_Primary/UseMyCards.svg

<svg width="1024" height="1024" viewBox="0 0 1024 1024" fill="none" xmlns="http://www.w3.org/2000/svg">
<g clip-path="url(#clip0_2_3822)">
<path d="M512 1024C794.77 1024 1024 794.77 1024 512C1024 229.23 794.77 0 512 0C229.23 0 0 229.23 0 512C0 794.77 229.23 1024 512 1024Z" fill="#96DFD3"/>
<path d="M288.82 397.81L259.5 544.39C253.029 537.641 248.356 529.375 245.91 520.351C243.464 511.327 243.323 501.832 245.5 492.74L270.63 375.47C275.043 356.141 285.854 338.868 301.311 326.452C316.767 314.035 335.964 307.202 355.79 307.06H663C672.138 307.164 681.111 309.51 689.132 313.892C697.152 318.273 703.974 324.556 709 332.19H371.19C332.1 330.8 300 348.94 288.82 397.81ZM778.82 422.94L732.75 636.54C721.6 691 695.07 704.94 650.4 704.94H320.93C283.24 704.94 258.11 674.23 265.09 635.14L311.16 424.34C318.16 386.65 327.91 355.93 380.96 355.93L378.17 354.53H723C760.69 354.53 785.82 385.24 778.84 422.94H778.82ZM706.23 600.24H300L290.23 642.12C288.82 656.08 300 670 314 670H663C679.75 670 693.71 657.44 697.9 642.08L706.23 600.24ZM724.38 389.44H374V390.84C358.64 390.84 343.29 402.01 340.49 418.76L312.55 548.58H717.41L745.33 417.35C749.52 403.39 739.75 389.43 724.39 389.43L724.38 389.44ZM457.74 428.52C447.56 428.52 437.42 433.72 430.06 441.52C426.6 433.71 419.06 428.52 408.88 428.52C392.13 428.52 375.37 442.52 371.19 459.23C367.01 475.94 378.19 488.55 394.92 488.55C404.25 488.55 414.07 483.35 421.3 475.86C425.02 483.64 433.3 488.55 443.78 488.55C459.14 488.55 475.89 474.55 480.08 459.23C484.27 442.48 474.5 428.52 457.74 428.52Z" fill="white"/>
</g>
<defs>
<clipPath id="clip0_2_3822">
<rect width="1024" height="1024" fill="white"/>
</clipPath>
</defs>
</svg>

<svg width="1024" height="1024" fill="none" xmlns="http://www.w3.org/2000/svg"><g clip-path="url(#a)"><path d="M512 1024c282.77 0 512-229.23 512-512S794.77 0 512 0 0 229.23 0 512s229.23 512 512 512Z" fill="#96DFD3"/><path d="M288.82 397.81 259.5 544.39a55.845 55.845 0 0 1-14-51.65l25.13-117.27a87.997 87.997 0 0 1 85.16-68.41H663a55.83 55.83 0 0 1 46 25.13H371.19c-39.09-1.39-71.19 16.75-82.37 65.62Zm490 25.13-46.07 213.6c-11.15 54.46-37.68 68.4-82.35 68.4H320.93c-37.69 0-62.82-30.71-55.84-69.8l46.07-210.8c7-37.69 16.75-68.41 69.8-68.41l-2.79-1.4H723c37.69 0 62.82 30.71 55.84 68.41h-.02Zm-72.59 177.3H300l-9.77 41.88C288.82 656.08 300 670 314 670h349c16.75 0 30.71-12.56 34.9-27.92l8.33-41.84Zm18.15-210.8H374v1.4c-15.36 0-30.71 11.17-33.51 27.92l-27.94 129.82h404.86l27.92-131.23c4.19-13.96-5.58-27.92-20.94-27.92l-.01.01Zm-266.64 39.08c-10.18 0-20.32 5.2-27.68 13-3.46-7.81-11-13-21.18-13-16.75 0-33.51 14-37.69 30.71s7 29.32 23.73 29.32c9.33 0 19.15-5.2 26.38-12.69 3.72 7.78 12 12.69 22.48 12.69 15.36 0 32.11-14 36.3-29.32 4.19-16.75-5.58-30.71-22.34-30.71Z" fill="#fff"/></g><defs><clipPath id="a"><path fill="#fff" d="M0 0h1024v1024H0z"/></clipPath></defs></svg>
